;FLAVOR:Marlin
;TIME:6903
;Filament used: 5.37058m
;Layer height: 0.2
;MINX:55.338
;MINY:70.943
;MINZ:0.2
;MAXX:158.081
;MAXY:173.648
;MAXZ:12.6
;Generated with Cura_SteamEngine 4.2.1
M140 S60
M105
M190 S60
M104 S200
M105
M109 S200
M82 ;absolute extrusion mode
M201 X500.00 Y500.00 Z100.00 E5000.00 ;Setup machine max acceleration
M203 X500.00 Y500.00 Z10.00 E50.00 ;Setup machine max feedrate
M204 P500.00 R1000.00 T500.00 ;Setup Print/Retract/Travel acceleration
M205 X8.00 Y8.00 Z0.40 E5.00 ;Setup Jerk
M220 S100 ;Reset Feedrate
M221 S100 ;Reset Flowrate

G28 ;Home

G92 E0 ;Reset Extruder
G1 Z2.0 F3000 ;Move Z Axis up
G1 X10.1 Y20 Z0.28 F5000.0 ;Move to start position
G1 X10.1 Y200.0 Z0.28 F1500.0 E15 ;Draw the first line
G1 X10.4 Y200.0 Z0.28 F5000.0 ;Move to side a little
G1 X10.4 Y20 Z0.28 F1500.0 E30 ;Draw the second line
G92 E0 ;Reset Extruder
G1 Z2.0 F3000 ;Move Z Axis up

G92 E0
G92 E0
G1 F2700 E-5
;LAYER_COUNT:62
;LAYER:0
M107
G0 F6000 X69.66 Y73.247 Z0.2
;TYPE:SKIRT
G1 F2700 E0
G1 F1200 X70.266 Y72.714 E0.02953
G1 X70.921 Y72.243 E0.05904
G1 X71.619 Y71.84 E0.08853
G1 X72.354 Y71.507 E0.11805
G1 X73.119 Y71.249 E0.14759
G1 X73.905 Y71.068 E0.1771
G1 X74.705 Y70.966 E0.20661
G1 X75.511 Y70.943 E0.23611
G1 X76.316 Y71 E0.26563
G1 X77.111 Y71.137 E0.29515
G1 X77.889 Y71.351 E0.32467
G1 X78.641 Y71.642 E0.35417
G1 X79.483 Y72.076 E0.38883
G1 X96.444 Y82.114 E1.10989
G1 X98.407 Y79.447 E1.23105
G1 X98.917 Y78.822 E1.26056
G1 X99.486 Y78.25 E1.29008
G1 X100.109 Y77.738 E1.31958
G1 X100.779 Y77.289 E1.34909
G1 X101.323 Y76.991 E1.37179
G1 X101.417 Y76.944 E1.37563
G1 X102.155 Y76.62 E1.40512
G1 X102.922 Y76.37 E1.43463
G1 X103.71 Y76.197 E1.46415
G1 X104.512 Y76.103 E1.49369
G1 X105.057 Y76.085 E1.51364
G1 X114.942 Y76.085 E1.8753
G1 X115.748 Y76.125 E1.90482
G1 X116.546 Y76.245 E1.93435
G1 X117.328 Y76.442 E1.96385
G1 X118.086 Y76.717 E1.99335
G1 X118.814 Y77.065 E2.02287
G1 X119.504 Y77.483 E2.05239
G1 X120.149 Y77.968 E2.08191
G1 X120.742 Y78.514 E2.11141
G1 X121.494 Y79.395 E2.15378
G1 X154.58 Y124.279 E4.19385
G1 X154.584 Y124.285 E4.19412
G1 X156.478 Y126.859 E4.31104
G1 X156.924 Y127.531 E4.34054
G1 X157.3 Y128.245 E4.37007
G1 X157.604 Y128.992 E4.39957
G1 X157.833 Y129.766 E4.4291
G1 X157.984 Y130.558 E4.4586
G1 X158.051 Y131.252 E4.48411
G1 X158.058 Y131.384 E4.48895
G1 X158.06 Y132.191 E4.51847
G1 X157.983 Y132.994 E4.54799
G1 X157.827 Y133.785 E4.57748
G1 X157.593 Y134.557 E4.607
G1 X157.284 Y135.302 E4.63651
G1 X156.978 Y135.885 E4.66059
G1 X154.806 Y139.647 E4.81952
G1 X154.369 Y140.325 E4.84904
G1 X153.867 Y140.956 E4.87854
G1 X153.304 Y141.534 E4.90806
G1 X152.687 Y142.054 E4.93758
G1 X152.022 Y142.51 E4.96708
G1 X151.315 Y142.898 E4.99658
G1 X150.572 Y143.215 E5.02614
G1 X149.803 Y143.456 E5.05562
G1 X149.013 Y143.62 E5.08514
G1 X148.392 Y143.692 E5.10801
G1 X148.162 Y143.71 E5.11645
G1 X147.356 Y143.733 E5.14595
G1 X146.879 Y143.699 E5.16345
G1 X156.993 Y161.218 E5.90355
G1 X157.362 Y161.936 E5.93308
G1 X157.657 Y162.687 E5.9626
G1 X157.877 Y163.463 E5.99211
G1 X158.018 Y164.257 E6.02162
G1 X158.081 Y165.061 E6.05112
G1 X158.063 Y165.868 E6.08065
G1 X157.966 Y166.669 E6.11017
G1 X157.79 Y167.456 E6.13968
G1 X157.537 Y168.222 E6.16919
G1 X157.209 Y168.959 E6.19871
G1 X157.008 Y169.333 E6.21424
G1 X156.882 Y169.553 E6.22352
G1 X156.446 Y170.233 E6.25307
G1 X155.946 Y170.866 E6.28258
G1 X155.386 Y171.446 E6.31208
G1 X154.771 Y171.968 E6.34159
G1 X154.107 Y172.426 E6.3711
G1 X153.401 Y172.817 E6.40063
G1 X152.66 Y173.136 E6.43015
G1 X151.891 Y173.38 E6.45966
G1 X151.102 Y173.546 E6.48916
G1 X150.3 Y173.634 E6.51868
G1 X149.818 Y173.648 E6.53632
G1 X70.345 Y173.648 E9.44393
G1 X69.539 Y173.608 E9.47346
G1 X68.741 Y173.488 E9.50298
G1 X67.959 Y173.291 E9.53248
G1 X67.201 Y173.016 E9.56199
G1 X66.473 Y172.668 E9.59151
G1 X65.783 Y172.25 E9.62102
G1 X65.138 Y171.765 E9.65055
G1 X64.545 Y171.219 E9.68004
G1 X64.008 Y170.617 E9.70955
G1 X63.533 Y169.964 E9.7391
G1 X63.281 Y169.553 E9.75673
G1 X63.155 Y169.333 E9.76601
G1 X62.79 Y168.614 E9.79551
G1 X62.497 Y167.863 E9.825
G1 X62.28 Y167.086 E9.85452
G1 X62.141 Y166.291 E9.88405
G1 X62.081 Y165.487 E9.91354
G1 X62.102 Y164.68 E9.94308
G1 X62.202 Y163.88 E9.97258
G1 X62.381 Y163.093 E10.0021
G1 X62.636 Y162.328 E10.03161
G1 X62.967 Y161.592 E10.06113
G1 X63.17 Y161.218 E10.0767
G1 X73.289 Y143.691 E10.81714
G1 X73.26 Y143.695 E10.81821
G1 X72.454 Y143.733 E10.84774
G1 X71.837 Y143.708 E10.87033
G1 X71.607 Y143.69 E10.87877
G1 X70.807 Y143.587 E10.90828
G1 X70.021 Y143.406 E10.93779
G1 X69.256 Y143.148 E10.96733
G1 X68.522 Y142.815 E10.99681
G1 X67.823 Y142.411 E11.02635
G1 X67.168 Y141.94 E11.05587
G1 X66.563 Y141.407 E11.08537
G1 X66.014 Y140.816 E11.11488
G1 X65.525 Y140.174 E11.14441
G1 X65.192 Y139.645 E11.16727
G1 X63.022 Y135.886 E11.32607
G1 X62.654 Y135.168 E11.35559
G1 X62.359 Y134.417 E11.38511
G1 X62.139 Y133.641 E11.41462
G1 X61.998 Y132.847 E11.44412
G1 X61.935 Y132.042 E11.47367
G1 X61.943 Y131.385 E11.49771
G1 X61.95 Y131.253 E11.50254
G1 X62.033 Y130.45 E11.53208
G1 X62.195 Y129.66 E11.56158
G1 X62.434 Y128.89 E11.59108
G1 X62.748 Y128.147 E11.62059
G1 X63.134 Y127.438 E11.65012
G1 X63.521 Y126.862 E11.67551
G1 X67.09 Y122.009 E11.89591
G1 X59.375 Y117.445 E12.22386
G1 X58.702 Y117 E12.25338
G1 X58.076 Y116.491 E12.2829
G1 X57.504 Y115.922 E12.31242
G1 X56.991 Y115.3 E12.34192
G1 X56.542 Y114.63 E12.37143
G1 X56.161 Y113.919 E12.40094
G1 X55.853 Y113.173 E12.43047
G1 X55.662 Y112.562 E12.45389
G1 X55.615 Y112.388 E12.46048
G1 X55.443 Y111.599 E12.49002
G1 X55.35 Y110.798 E12.51953
G1 X55.338 Y109.991 E12.54906
G1 X55.405 Y109.187 E12.57857
G1 X55.551 Y108.394 E12.60807
G1 X55.775 Y107.619 E12.63759
G1 X56.075 Y106.87 E12.66711
G1 X56.375 Y106.28 E12.69132
G1 X68.68 Y84.359 E13.61104
G1 X68.416 Y84.016 E13.62688
G1 X67.989 Y83.332 E13.65638
G1 X67.631 Y82.609 E13.6859
G1 X67.347 Y81.854 E13.71541
G1 X67.138 Y81.075 E13.74492
G1 X67.008 Y80.279 E13.77443
G1 X66.958 Y79.473 E13.80397
G1 X66.987 Y78.667 E13.83348
G1 X67.096 Y77.868 E13.86298
G1 X67.284 Y77.083 E13.89251
G1 X67.548 Y76.321 E13.92202
G1 X67.886 Y75.589 E13.95152
G1 X68.296 Y74.894 E13.98104
G1 X68.871 Y74.123 E14.01623
G1 X69.111 Y73.838 E14.02986
G1 X69.66 Y73.247 E14.05937
G0 F6000 X69.982 Y73.548
G1 F1200 X70.573 Y73.031 E14.0881
G1 X71.214 Y72.578 E14.11682
G1 X71.897 Y72.192 E14.14552
G1 X72.616 Y71.878 E14.17422
G1 X73.363 Y71.638 E14.20293
G1 X74.131 Y71.476 E14.23165
G1 X74.911 Y71.393 E14.26034
G1 X75.695 Y71.389 E14.28903
G1 X76.476 Y71.466 E14.31774
G1 X77.245 Y71.621 E14.34644
G1 X77.995 Y71.854 E14.37517
G1 X78.716 Y72.162 E14.40386
G1 X79.259 Y72.455 E14.42643
G1 X96.562 Y82.696 E15.16205
G1 X98.761 Y79.708 E15.29779
G1 X99.258 Y79.101 E15.32649
G1 X99.814 Y78.547 E15.3552
G1 X100.423 Y78.053 E15.38389
G1 X101.08 Y77.623 E15.41262
G1 X101.519 Y77.385 E15.43089
G1 X101.613 Y77.338 E15.43474
G1 X102.332 Y77.023 E15.46346
G1 X103.079 Y76.783 E15.49216
G1 X103.847 Y76.621 E15.52088
G1 X104.627 Y76.537 E15.54958
G1 X105.057 Y76.525 E15.56532
G1 X114.942 Y76.525 E15.92697
G1 X115.726 Y76.565 E15.95569
G1 X116.501 Y76.684 E15.98438
G1 X117.26 Y76.882 E16.01308
G1 X117.995 Y77.156 E16.04178
G1 X118.699 Y77.504 E16.07051
G1 X119.363 Y77.921 E16.0992
G1 X119.982 Y78.404 E16.12792
G1 X120.548 Y78.947 E16.15662
G1 X121.14 Y79.656 E16.19041
G1 X154.226 Y124.54 E18.23048
G1 X154.23 Y124.545 E18.23071
G1 X156.124 Y127.119 E18.34763
G1 X156.556 Y127.774 E18.37634
G1 X156.919 Y128.47 E18.40506
G1 X157.21 Y129.198 E18.43374
G1 X157.425 Y129.953 E18.46246
G1 X157.562 Y130.726 E18.49119
G1 X157.611 Y131.275 E18.51135
G1 X157.618 Y131.407 E18.51619
G1 X157.62 Y132.192 E18.54491
G1 X157.541 Y132.973 E18.57363
G1 X157.384 Y133.741 E18.60231
G1 X157.149 Y134.49 E18.63103
G1 X156.84 Y135.211 E18.65973
G1 X156.597 Y135.665 E18.67857
G1 X154.425 Y139.427 E18.8375
G1 X153.999 Y140.086 E18.8662
G1 X153.508 Y140.697 E18.89488
G1 X152.957 Y141.256 E18.9236
G1 X152.352 Y141.756 E18.95231
G1 X151.699 Y142.191 E18.98102
G1 X151.006 Y142.558 E19.00971
G1 X150.278 Y142.852 E19.03844
G1 X149.525 Y143.071 E19.06713
G1 X148.753 Y143.212 E19.09584
G1 X148.358 Y143.254 E19.11037
G1 X148.128 Y143.272 E19.11881
G1 X147.343 Y143.293 E19.14754
G1 X146.561 Y143.234 E19.17623
G1 X146.049 Y143.143 E19.19526
G1 X156.612 Y161.438 E19.96816
G1 X156.97 Y162.137 E19.99689
G1 X157.254 Y162.868 E20.02558
G1 X157.462 Y163.624 E20.05427
G1 X157.592 Y164.398 E20.08298
G1 X157.643 Y165.181 E20.11169
G1 X157.614 Y165.965 E20.14039
G1 X157.505 Y166.742 E20.1691
G1 X157.318 Y167.504 E20.19781
G1 X157.054 Y168.243 E20.22652
G1 X156.626 Y169.115 E20.26206
G1 X156.5 Y169.335 E20.27133
G1 X156.076 Y169.995 E20.30003
G1 X155.587 Y170.608 E20.32872
G1 X155.038 Y171.169 E20.35744
G1 X154.434 Y171.671 E20.38617
G1 X153.783 Y172.109 E20.41488
G1 X153.091 Y172.478 E20.44357
G1 X152.365 Y172.775 E20.47227
G1 X151.612 Y172.996 E20.50098
G1 X150.841 Y173.14 E20.52968
G1 X149.818 Y173.208 E20.56719
G1 X70.345 Y173.208 E23.4748
G1 X69.561 Y173.168 E23.50352
G1 X68.786 Y173.049 E23.5322
G1 X68.027 Y172.851 E23.5609
G1 X67.292 Y172.577 E23.5896
G1 X66.588 Y172.229 E23.61833
G1 X65.924 Y171.812 E23.64702
G1 X65.305 Y171.329 E23.67575
G1 X64.739 Y170.786 E23.70444
G1 X64.231 Y170.188 E23.73315
G1 X63.663 Y169.335 E23.77064
G1 X63.537 Y169.115 E23.77992
G1 X63.183 Y168.415 E23.80862
G1 X62.901 Y167.683 E23.83732
G1 X62.695 Y166.926 E23.86602
G1 X62.568 Y166.151 E23.89475
G1 X62.519 Y165.368 E23.92346
G1 X62.551 Y164.584 E23.95216
G1 X62.663 Y163.808 E23.98085
G1 X62.853 Y163.046 E24.00958
G1 X63.119 Y162.308 E24.03828
G1 X63.551 Y161.438 E24.07382
G1 X74.138 Y143.1 E24.84852
G1 X73.824 Y143.173 E24.86031
G1 X73.046 Y143.272 E24.88901
G1 X71.871 Y143.27 E24.932
G1 X71.641 Y143.252 E24.94044
G1 X70.863 Y143.151 E24.96914
G1 X70.099 Y142.971 E24.99786
G1 X69.358 Y142.714 E25.02655
G1 X68.646 Y142.384 E25.05526
G1 X67.972 Y141.983 E25.08395
G1 X67.342 Y141.515 E25.11267
G1 X66.763 Y140.985 E25.14139
G1 X66.241 Y140.4 E25.17007
G1 X65.781 Y139.764 E25.19879
G1 X65.573 Y139.425 E25.21334
G1 X63.403 Y135.666 E25.37214
G1 X63.046 Y134.967 E25.40085
G1 X62.762 Y134.236 E25.42955
G1 X62.554 Y133.479 E25.45827
G1 X62.424 Y132.706 E25.48695
G1 X62.373 Y131.923 E25.51565
G1 X62.383 Y131.408 E25.5345
G1 X62.39 Y131.276 E25.53934
G1 X62.471 Y130.496 E25.56803
G1 X62.632 Y129.728 E25.59673
G1 X62.869 Y128.98 E25.62544
G1 X63.182 Y128.26 E25.65417
G1 X63.566 Y127.576 E25.68286
G1 X63.876 Y127.122 E25.70298
G1 X67.732 Y121.878 E25.94112
G1 X59.599 Y117.066 E26.28686
G1 X58.945 Y116.633 E26.31555
G1 X58.339 Y116.135 E26.34425
G1 X57.786 Y115.578 E26.37297
G1 X57.293 Y114.968 E26.40166
G1 X56.864 Y114.311 E26.43037
G1 X56.505 Y113.613 E26.45909
G1 X56.218 Y112.883 E26.48778
G1 X56.086 Y112.447 E26.50445
G1 X56.039 Y112.273 E26.51104
G1 X55.874 Y111.506 E26.53975
G1 X55.787 Y110.726 E26.56846
G1 X55.78 Y109.942 E26.59715
G1 X55.853 Y109.16 E26.62588
G1 X56.005 Y108.391 E26.65456
G1 X56.234 Y107.64 E26.68329
G1 X56.539 Y106.917 E26.71199
G1 X56.759 Y106.496 E26.72937
G1 X69.188 Y84.354 E27.65837
G1 X69.206 Y84.32 E27.65977
G1 X68.765 Y83.747 E27.68623
G1 X68.352 Y83.08 E27.71493
G1 X68.009 Y82.374 E27.74365
G1 X67.74 Y81.637 E27.77235
G1 X67.547 Y80.877 E27.80104
G1 X67.432 Y80.101 E27.82974
G1 X67.397 Y79.317 E27.85845
G1 X67.442 Y78.534 E27.88714
G1 X67.567 Y77.759 E27.91587
G1 X67.769 Y77.001 E27.94457
G1 X68.048 Y76.268 E27.97326
G1 X68.4 Y75.566 E28.00199
G1 X68.821 Y74.905 E28.03066
G1 X69.207 Y74.406 E28.05374
G1 X69.447 Y74.121 E28.06738
G1 X69.982 Y73.548 E28.09606
G0 F6000 X70.304 Y73.848
G1 F1200 X70.88 Y73.35 E28.12392
G1 X71.506 Y72.914 E28.15183
G1 X72.173 Y72.547 E28.17968
G1 X72.875 Y72.251 E28.20755
G1 X73.604 Y72.031 E28.23541
G1 X74.353 Y71.888 E28.26331
G1 X75.112 Y71.824 E28.29118
G1 X75.873 Y71.841 E28.31903
G1 X76.629 Y71.937 E28.34691
G1 X77.371 Y72.112 E28.3748
G1 X78.09 Y72.363 E28.40266
G1 X79.035 Y72.833 E28.44128
G1 X96.682 Y83.277 E29.19151
G1 X99.116 Y79.969 E29.34177
G1 X99.599 Y79.38 E29.36964
G1 X100.141 Y78.845 E29.3975
G1 X100.736 Y78.369 E29.42538
G1 X101.378 Y77.959 E29.45325
G1 X101.716 Y77.778 E29.46727
G1 X101.81 Y77.731 E29.47112
G1 X102.509 Y77.427 E29.49901
G1 X103.235 Y77.197 E29.52687
G1 X103.981 Y77.045 E29.55472
G1 X105.057 Y76.965 E29.5942
G1 X114.942 Y76.965 E29.95585
G1 X115.703 Y77.005 E29.98373
G1 X116.455 Y77.124 E30.01159
G1 X117.191 Y77.322 E30.03947
G1 X117.902 Y77.596 E30.06735
G1 X118.58 Y77.942 E30.0952
G1 X119.219 Y78.358 E30.12309
G1 X119.81 Y78.839 E30.15097
G1 X120.348 Y79.379 E30.17886
G1 X120.786 Y79.917 E30.20424
G1 X153.872 Y124.801 E32.24431
G1 X153.876 Y124.806 E32.24455
G1 X155.77 Y127.38 E32.36147
G1 X156.188 Y128.017 E32.38934
G1 X156.538 Y128.694 E32.41722
G1 X156.815 Y129.403 E32.44507
G1 X157.016 Y130.138 E32.47295
G1 X157.139 Y130.89 E32.50083
G1 X157.172 Y131.299 E32.51584
G1 X157.179 Y131.431 E32.52068
G1 X157.179 Y132.192 E32.54852
G1 X157.1 Y132.95 E32.5764
G1 X156.941 Y133.695 E32.60427
G1 X156.706 Y134.42 E32.63216
G1 X156.216 Y135.445 E32.67372
G1 X154.044 Y139.207 E32.83265
G1 X153.629 Y139.846 E32.86053
G1 X153.15 Y140.438 E32.88839
G1 X152.611 Y140.976 E32.91625
G1 X152.018 Y141.455 E32.94414
G1 X151.379 Y141.869 E32.972
G1 X150.699 Y142.214 E32.9999
G1 X149.988 Y142.486 E33.02775
G1 X149.251 Y142.682 E33.05565
G1 X148.323 Y142.815 E33.08995
G1 X148.093 Y142.833 E33.09839
G1 X147.332 Y142.852 E33.12624
G1 X146.572 Y142.792 E33.15413
G1 X145.823 Y142.652 E33.18201
G1 X145.141 Y142.449 E33.20804
G1 X156.231 Y161.658 E34.01954
G1 X156.577 Y162.337 E34.04742
G1 X156.85 Y163.048 E34.07529
G1 X157.047 Y163.784 E34.10316
G1 X157.165 Y164.537 E34.13105
G1 X157.204 Y165.298 E34.15892
G1 X157.163 Y166.058 E34.18677
G1 X157.043 Y166.811 E34.21467
G1 X156.844 Y167.546 E34.24253
G1 X156.569 Y168.257 E34.27042
G1 X156.244 Y168.896 E34.29665
G1 X156.118 Y169.116 E34.30592
G1 X155.705 Y169.756 E34.33379
G1 X155.228 Y170.35 E34.36166
G1 X154.69 Y170.89 E34.38955
G1 X154.099 Y171.371 E34.41743
G1 X153.462 Y171.788 E34.44528
G1 X152.783 Y172.135 E34.47318
G1 X152.073 Y172.409 E34.50102
G1 X151.337 Y172.607 E34.52891
G1 X150.585 Y172.727 E34.55677
G1 X149.818 Y172.768 E34.58487
G1 X70.345 Y172.768 E37.49248
G1 X69.584 Y172.728 E37.52036
G1 X68.832 Y172.609 E37.54822
G1 X68.096 Y172.411 E37.5761
G1 X67.385 Y172.137 E37.60398
G1 X66.707 Y171.791 E37.63183
G1 X66.068 Y171.375 E37.65973
G1 X65.477 Y170.894 E37.6876
G1 X64.939 Y170.354 E37.71549
G1 X64.461 Y169.761 E37.74336
G1 X64.045 Y169.116 E37.77144
G1 X63.919 Y168.896 E37.78071
G1 X63.576 Y168.216 E37.80858
G1 X63.305 Y167.504 E37.83645
G1 X63.111 Y166.767 E37.86433
G1 X62.995 Y166.014 E37.89221
G1 X62.959 Y165.253 E37.92008
G1 X63.003 Y164.493 E37.94793
G1 X63.126 Y163.741 E37.97581
G1 X63.327 Y163.006 E38.00369
G1 X63.604 Y162.296 E38.03157
G1 X63.932 Y161.658 E38.05782
G1 X75.066 Y142.374 E38.8725
G1 X75.065 Y142.374 E38.87254
G1 X74.34 Y142.609 E38.90042
G1 X73.594 Y142.766 E38.92831
G1 X72.837 Y142.844 E38.95615
G1 X71.906 Y142.831 E38.99022
G1 X71.676 Y142.813 E38.99866
G1 X70.92 Y142.714 E39.02655
G1 X70.179 Y142.536 E39.05443
G1 X69.461 Y142.281 E39.08231
G1 X68.774 Y141.953 E39.11016
G1 X68.125 Y141.555 E39.13802
G1 X67.521 Y141.09 E39.16591
G1 X66.969 Y140.565 E39.19378
G1 X66.475 Y139.985 E39.22165
G1 X65.954 Y139.205 E39.25597
G1 X63.784 Y135.446 E39.41477
G1 X63.439 Y134.767 E39.44263
G1 X63.166 Y134.055 E39.47053
G1 X62.969 Y133.319 E39.4984
G1 X62.851 Y132.567 E39.52625
