;FLAVOR:Marlin
;TIME:19786
;Filament used: 17.0667m
;Layer height: 0.2
;MINX:55.293
;MINY:56.853
;MINZ:0.24
;MAXX:164.703
;MAXY:162.942
;MAXZ:51.29
;Generated with Cura_SteamEngine 4.2.1
M140 S60
M105
M190 S60
M104 S200
M105
M109 S200
M82 ;absolute extrusion mode
M201 X500.00 Y500.00 Z100.00 E5000.00 ;Setup machine max acceleration
M203 X500.00 Y500.00 Z10.00 E50.00 ;Setup machine max feedrate
M204 P500.00 R1000.00 T500.00 ;Setup Print/Retract/Travel acceleration
M205 X8.00 Y8.00 Z0.40 E5.00 ;Setup Jerk
M220 S100 ;Reset Feedrate
M221 S100 ;Reset Flowrate

G28 ;Home

G92 E0 ;Reset Extruder
G1 Z2.0 F3000 ;Move Z Axis up
G1 X10.1 Y20 Z0.28 F5000.0 ;Move to start position
G1 X10.1 Y200.0 Z0.28 F1500.0 E15 ;Draw the first line
G1 X10.4 Y200.0 Z0.28 F5000.0 ;Move to side a little
G1 X10.4 Y20 Z0.28 F1500.0 E30 ;Draw the second line
G92 E0 ;Reset Extruder
G1 Z2.0 F3000 ;Move Z Axis up

G92 E0
G92 E0
G1 F2700 E-5
;LAYER_COUNT:250
;LAYER:-6
M107
G0 F9750 X60.333 Y68.42 Z0.24
;TYPE:SUPPORT-INTERFACE
G1 F2700 E0
G1 F1462.5 X60.997 Y67.84 E0.07038
G1 X61.128 Y67.734 E0.08383
G1 X61.838 Y67.198 E0.15484
G1 X61.987 Y67.094 E0.16934
G1 X62.751 Y66.602 E0.24188
G1 X62.874 Y66.529 E0.2533
G1 X63.655 Y66.103 E0.32431
G1 X63.841 Y66.01 E0.34091
G1 X64.63 Y65.652 E0.41007
G1 X64.799 Y65.582 E0.42468
G1 X65.618 Y65.28 E0.49436
G1 X65.815 Y65.215 E0.51091
G1 X66.647 Y64.976 E0.58001
G1 X66.844 Y64.927 E0.59622
G1 X67.676 Y64.751 E0.6641
G1 X67.892 Y64.714 E0.6816
G1 X68.722 Y64.603 E0.74844
G1 X68.932 Y64.583 E0.76528
G1 X70.356 Y64.517 E0.87907
G1 X89.427 Y64.517 E2.4014
G1 X90.095 Y64.475 E2.45483
G1 X90.766 Y64.346 E2.50937
G1 X91.415 Y64.133 E2.5639
G1 X92.032 Y63.841 E2.61838
G1 X92.607 Y63.473 E2.67288
G1 X93.132 Y63.034 E2.72751
G1 X93.631 Y62.489 E2.78649
G1 X93.801 Y62.275 E2.80831
G1 X93.934 Y62.119 E2.82467
G1 X94.527 Y61.475 E2.89455
G1 X94.641 Y61.36 E2.90748
G1 X95.313 Y60.729 E2.98106
G1 X95.428 Y60.629 E2.99323
G1 X96.14 Y60.052 E3.06638
G1 X96.265 Y59.959 E3.07882
G1 X96.973 Y59.466 E3.14769
G1 X97.146 Y59.356 E3.16405
G1 X98.49 Y58.595 E3.28734
G1 X98.572 Y58.556 E3.29459
G1 X99.414 Y58.173 E3.36843
G1 X99.591 Y58.1 E3.38371
G1 X100.41 Y57.797 E3.45342
G1 X100.595 Y57.736 E3.46897
G1 X101.412 Y57.5 E3.53685
G1 X101.636 Y57.444 E3.55528
G1 X102.47 Y57.268 E3.62332
G1 X102.653 Y57.236 E3.63815
G1 X103.522 Y57.119 E3.70814
G1 X103.706 Y57.102 E3.72289
G1 X105.147 Y57.034 E3.83805
G1 X114.916 Y57.035 E4.61785
G1 X116.04 Y57.08 E4.70765
G1 X116.957 Y57.182 E4.7813
G1 X117.132 Y57.207 E4.79541
G1 X118.003 Y57.369 E4.86613
G1 X118.171 Y57.406 E4.87986
G1 X119.09 Y57.645 E4.95566
G1 X120.007 Y57.951 E5.03282
G1 X120.178 Y58.015 E5.0474
G1 X121 Y58.357 E5.11847
G1 X121.146 Y58.424 E5.13129
G1 X122.091 Y58.907 E5.21601
G1 X122.634 Y59.223 E5.26616
G1 X122.721 Y59.28 E5.27446
G1 X123.472 Y59.78 E5.34648
G1 X123.636 Y59.898 E5.36261
G1 X124.333 Y60.44 E5.43308
G1 X124.456 Y60.543 E5.44589
G1 X125.233 Y61.248 E5.52964
G1 X125.862 Y61.903 E5.60213
G1 X125.979 Y62.037 E5.61633
G1 X126.376 Y62.527 E5.66667
G1 X126.831 Y63.02 E5.72022
G1 X127.353 Y63.459 E5.77467
G1 X127.926 Y63.83 E5.82916
G1 X128.542 Y64.125 E5.88368
G1 X129.19 Y64.341 E5.9382
G1 X129.86 Y64.471 E5.99268
G1 X130.551 Y64.517 E6.04796
G1 X149.738 Y64.518 E7.57955
G1 X150.739 Y64.554 E7.65951
G1 X151.779 Y64.665 E7.743
G1 X151.954 Y64.69 E7.75711
G1 X152.843 Y64.854 E7.82927
G1 X152.966 Y64.882 E7.83934
G1 X153.86 Y65.116 E7.9131
G1 X154.023 Y65.165 E7.92669
G1 X154.865 Y65.452 E7.9977
G1 X155.031 Y65.515 E8.01187
G1 X155.834 Y65.856 E8.08151
G1 X156.023 Y65.944 E8.09815
G1 X156.934 Y66.418 E8.18013
G1 X157.713 Y66.893 E8.25296
G1 X157.864 Y66.993 E8.26742
G1 X158.578 Y67.504 E8.3375
G1 X158.726 Y67.617 E8.35237
G1 X159.417 Y68.193 E8.42418
G1 X159.53 Y68.294 E8.43627
G1 X160.179 Y68.919 E8.5082
G1 X160.299 Y69.044 E8.52203
G1 X160.902 Y69.715 E8.59404
G1 X160.998 Y69.832 E8.60612
G1 X161.549 Y70.545 E8.67805
G1 X161.669 Y70.717 E8.69479
G1 X162.411 Y71.872 E8.80438
G1 X162.52 Y72.063 E8.82193
G1 X162.964 Y72.902 E8.8977
G1 X163.043 Y73.067 E8.91231
G1 X163.396 Y73.869 E8.98225
G1 X163.459 Y74.025 E8.99568
G1 X163.758 Y74.871 E9.06731
G1 X163.81 Y75.035 E9.08104
G1 X164.051 Y75.913 E9.15372
G1 X164.091 Y76.08 E9.16743
G1 X164.258 Y76.928 E9.23642
G1 X164.289 Y77.121 E9.25202
G1 X164.396 Y77.991 E9.32199
G1 X164.413 Y78.178 E9.33698
G1 X164.456 Y79.07 E9.40827
G1 X164.458 Y79.252 E9.42279
G1 X164.437 Y80.126 E9.49258
G1 X164.427 Y80.303 E9.50673
G1 X164.339 Y81.204 E9.579
G1 X164.316 Y81.374 E9.59269
G1 X164.168 Y82.233 E9.66227
G1 X164.129 Y82.423 E9.67775
G1 X163.917 Y83.277 E9.74799
G1 X163.864 Y83.462 E9.76335
G1 X163.591 Y84.297 E9.83348
G1 X163.531 Y84.459 E9.84727
G1 X163.204 Y85.257 E9.91611
G1 X163.115 Y85.45 E9.93307
G1 X162.467 Y86.703 E10.04568
G1 X156.201 Y97.556 E11.04603
G1 X155.903 Y98.156 E11.09951
G1 X155.68 Y98.801 E11.15399
G1 X155.539 Y99.47 E11.20856
G1 X155.484 Y100.15 E11.26302
G1 X155.516 Y100.833 E11.3176
G1 X155.632 Y101.504 E11.37196
G1 X155.833 Y102.158 E11.42657
G1 X156.116 Y102.781 E11.48119
G1 X156.526 Y103.434 E11.54274
G1 X161.724 Y110.5 E12.24296
G1 X162.222 Y111.233 E12.3137
G1 X162.321 Y111.389 E12.32844
G1 X162.781 Y112.183 E12.40169
G1 X162.848 Y112.31 E12.41316
G1 X163.235 Y113.109 E12.48402
G1 X163.313 Y113.285 E12.49939
G1 X163.648 Y114.125 E12.57158
G1 X163.7 Y114.271 E12.58395
G1 X163.967 Y115.115 E12.65461
G1 X164.018 Y115.302 E12.67008
G1 X164.252 Y116.311 E12.75276
G1 X164.399 Y117.225 E12.82666
G1 X164.419 Y117.387 E12.83969
G1 X164.509 Y118.466 E12.92612
G1 X164.524 Y119.415 E13.00188
G1 X164.521 Y119.607 E13.01721
G1 X164.472 Y120.488 E13.08765
G1 X164.457 Y120.647 E13.10039
G1 X164.34 Y121.545 E13.17268
G1 X164.312 Y121.713 E13.18628
G1 X164.134 Y122.582 E13.25709
G1 X164.092 Y122.758 E13.27153
G1 X163.806 Y123.754 E13.35425
G1 X163.486 Y124.636 E13.42914
G1 X163.434 Y124.763 E13.4401
G1 X163 Y125.723 E13.5242
G1 X162.567 Y126.534 E13.59758
G1 X160.392 Y130.3 E13.94473
G1 X159.792 Y131.246 E14.03416
G1 X159.257 Y131.976 E14.1064
G1 X159.141 Y132.122 E14.12129
G1 X158.577 Y132.784 E14.19071
G1 X158.449 Y132.924 E14.20585
G1 X157.825 Y133.555 E14.27669
G1 X157.712 Y133.661 E14.28906
G1 X156.912 Y134.355 E14.3736
G1 X156.045 Y135.002 E14.45995
G1 X155.281 Y135.494 E14.53249
G1 X155.145 Y135.575 E14.54512
G1 X154.363 Y136.002 E14.61625
G1 X154.183 Y136.091 E14.63227
G1 X153.405 Y136.446 E14.70054
G1 X153.203 Y136.529 E14.71797
G1 X152.401 Y136.825 E14.78621
G1 X152.227 Y136.882 E14.80083
G1 X151.379 Y137.126 E14.87126
G1 X151.178 Y137.175 E14.88778
G1 X150.359 Y137.348 E14.9546
G1 X150.133 Y137.386 E14.97289
G1 X148.838 Y137.546 E15.07705
G1 X148.638 Y137.561 E15.09306
G1 X147.672 Y137.6 E15.17023
G1 X147.508 Y137.601 E15.18332
G1 X146.611 Y137.572 E15.25496
G1 X146.45 Y137.561 E15.26784
G1 X145.409 Y137.447 E15.35144
G1 X144.485 Y137.281 E15.42638
G1 X144.334 Y137.248 E15.43872
G1 X143.478 Y137.029 E15.50925
G1 X143.304 Y136.977 E15.52374
G1 X142.462 Y136.694 E15.59465
G1 X142.307 Y136.636 E15.60786
G1 X141.453 Y136.278 E15.68178
G1 X141.327 Y136.219 E15.69288
G1 X140.524 Y135.812 E15.76475
G1 X140.303 Y135.689 E15.78493
G1 X139.698 Y135.402 E15.83839
G1 X139.049 Y135.189 E15.89291
G1 X138.378 Y135.059 E15.94747
G1 X137.696 Y135.016 E16.00202
G1 X137.014 Y135.059 E16.05657
G1 X136.345 Y135.188 E16.11095
G1 X135.696 Y135.4 E16.16545
G1 X135.078 Y135.692 E16.22001
G1 X134.503 Y136.06 E16.27451
G1 X133.978 Y136.497 E16.32903
G1 X133.511 Y137 E16.38382
G1 X133.026 Y137.703 E16.452
G1 X122.762 Y155.476 E18.0903
G1 X122.259 Y156.28 E18.16601
G1 X122.148 Y156.441 E18.18162
G1 X121.622 Y157.158 E18.2526
G1 X121.513 Y157.296 E18.26664
G1 X120.938 Y157.97 E18.33736
G1 X120.822 Y158.095 E18.35097
G1 X120.182 Y158.743 E18.42367
G1 X120.08 Y158.839 E18.43485
G1 X119.269 Y159.542 E18.52053
G1 X118.559 Y160.077 E18.59149
G1 X118.396 Y160.19 E18.60732
G1 X117.654 Y160.668 E18.67778
G1 X117.509 Y160.754 E18.69124
G1 X116.721 Y161.184 E18.76289
G1 X116.563 Y161.264 E18.77703
G1 X115.759 Y161.629 E18.84751
G1 X115.59 Y161.698 E18.86208
G1 X114.761 Y162.004 E18.93262
G1 X114.589 Y162.061 E18.94709
G1 X113.728 Y162.309 E19.01861
G1 X113.564 Y162.35 E19.0321
G1 X112.698 Y162.531 E19.10272
G1 X112.512 Y162.563 E19.11779
G1 X111.671 Y162.676 E19.18553
G1 X111.454 Y162.696 E19.20292
G1 X110.036 Y162.762 E19.31623
G1 X109.87 Y162.761 E19.32949
G1 X108.746 Y162.716 E19.41928
G1 X107.829 Y162.614 E19.49293
G1 X107.654 Y162.589 E19.50704
G1 X106.765 Y162.425 E19.5792
G1 X106.642 Y162.397 E19.58927
G1 X105.748 Y162.163 E19.66304
G1 X105.585 Y162.114 E19.67663
G1 X104.743 Y161.827 E19.74764
G1 X104.577 Y161.764 E19.76181
G1 X103.774 Y161.423 E19.83145
G1 X103.585 Y161.335 E19.84809
G1 X102.674 Y160.861 E19.93006
G1 X101.895 Y160.386 E20.0029
G1 X101.744 Y160.286 E20.01735
G1 X101.03 Y159.775 E20.08744
G1 X100.882 Y159.662 E20.1023
G1 X100.191 Y159.086 E20.17411
G1 X100.078 Y158.985 E20.18621
G1 X99.429 Y158.36 E20.25813
G1 X99.309 Y158.235 E20.27196
G1 X98.706 Y157.564 E20.34398
G1 X98.61 Y157.447 E20.35606
G1 X98.059 Y156.734 E20.42799
G1 X97.939 Y156.562 E20.44473
G1 X97.185 Y155.386 E20.55624
G1 X86.977 Y137.704 E22.18602
G1 X86.606 Y137.146 E22.23951
G1 X86.16 Y136.63 E22.29395
G1 X85.651 Y136.174 E22.3485
G1 X85.089 Y135.785 E22.40306
G1 X84.482 Y135.472 E22.45758
G1 X83.842 Y135.237 E22.512
G1 X83.177 Y135.084 E22.56647
G1 X82.497 Y135.017 E22.62101
G1 X81.814 Y135.037 E22.67556
G1 X81.139 Y135.142 E22.73008
G1 X80.482 Y135.332 E22.78468
G1 X79.787 Y135.639 E22.84533
G1 X78.922 Y136.098 E22.92349
G1 X78.778 Y136.168 E22.93628
G1 X77.944 Y136.536 E23.00904
G1 X77.804 Y136.592 E23.02108
G1 X76.947 Y136.897 E23.09369
G1 X76.786 Y136.948 E23.10717
G1 X75.935 Y137.182 E23.17762
G1 X75.746 Y137.228 E23.19315
G1 X74.884 Y137.399 E23.2633
G1 X74.701 Y137.429 E23.2781
G1 X73.831 Y137.537 E23.34808
G1 X73.652 Y137.552 E23.36242
G1 X72.78 Y137.597 E23.43212
G1 X72.578 Y137.598 E23.44825
G1 X71.271 Y137.554 E23.55264
G1 X71.059 Y137.536 E23.56962
G1 X70.143 Y137.43 E23.64323
G1 X69.97 Y137.404 E23.65719
G1 X69.082 Y137.236 E23.72933
G1 X68.929 Y137.201 E23.74186
G1 X68.057 Y136.969 E23.81389
G1 X67.894 Y136.919 E23.8275
G1 X67.036 Y136.623 E23.89995
G1 X66.891 Y136.566 E23.91239
G1 X66.06 Y136.208 E23.98461
G1 X65.906 Y136.135 E23.99822
G1 X65.114 Y135.723 E24.06948
G1 X64.955 Y135.633 E24.08407
G1 X64.22 Y135.179 E24.15303
G1 X64.06 Y135.072 E24.16839
G1 X63.344 Y134.556 E24.23884
G1 X63.185 Y134.432 E24.25494
G1 X62.535 Y133.886 E24.3227
G1 X62.379 Y133.745 E24.33948
G1 X61.753 Y133.136 E24.4092
G1 X61.616 Y132.992 E24.42507
G1 X61.039 Y132.342 E24.49444
G1 X60.923 Y132.201 E24.50902
G1 X60.402 Y131.52 E24.57746
G1 X60.266 Y131.326 E24.59638
G1 X59.565 Y130.227 E24.70043
G1 X57.392 Y126.456 E25.04785
G1 X56.972 Y125.664 E25.11941
G1 X56.89 Y125.493 E25.13455
G1 X56.538 Y124.691 E25.20446
G1 X56.464 Y124.502 E25.22066
G1 X56.17 Y123.673 E25.29087
G1 X56.118 Y123.505 E25.30491
G1 X55.883 Y122.65 E25.37569
G1 X55.843 Y122.483 E25.3894
G1 X55.668 Y121.593 E25.46181
G1 X55.645 Y121.448 E25.47352
G1 X55.536 Y120.556 E25.54526
G1 X55.521 Y120.374 E25.55984
G1 X55.474 Y119.34 E25.64246
G1 X55.502 Y118.288 E25.72646
G1 X55.588 Y117.342 E25.80229
G1 X55.61 Y117.168 E25.81629
G1 X55.782 Y116.144 E25.89917
G1 X55.997 Y115.249 E25.97265
G1 X56.046 Y115.074 E25.98716
G1 X56.318 Y114.224 E26.0584
G1 X56.374 Y114.071 E26.0714
G1 X56.7 Y113.257 E26.1414
G1 X56.784 Y113.067 E26.15798
G1 X57.171 Y112.277 E26.2282
G1 X57.248 Y112.132 E26.2413
G1 X57.705 Y111.349 E26.31367
G1 X57.789 Y111.217 E26.32616
G1 X58.347 Y110.404 E26.40488
G1 X63.473 Y103.434 E27.09551
G1 X63.835 Y102.87 E27.14901
G1 X64.128 Y102.254 E27.20346
G1 X64.342 Y101.605 E27.25801
G1 X64.472 Y100.935 E27.31249
G1 X64.516 Y100.254 E27.36696
G1 X64.474 Y99.572 E27.42151
G1 X64.346 Y98.901 E27.47604
G1 X64.134 Y98.25 E27.53069
G1 X63.799 Y97.558 E27.59206
G1 X57.474 Y86.598 E28.60217
G1 X57.035 Y85.77 E28.67698
G1 X56.958 Y85.61 E28.69115
G1 X56.598 Y84.79 E28.76264
G1 X56.534 Y84.627 E28.77662
G1 X56.236 Y83.787 E28.84776
G1 X56.189 Y83.638 E28.86023
G1 X55.949 Y82.761 E28.93281
G1 X55.906 Y82.579 E28.94774
G1 X55.738 Y81.726 E29.01714
G1 X55.712 Y81.562 E29.03039
G1 X55.6 Y80.653 E29.1035
G1 X55.587 Y80.499 E29.11584
G1 X55.544 Y79.606 E29.18721
G1 X55.542 Y79.407 E29.20309
G1 X55.563 Y78.547 E29.27176
G1 X55.573 Y78.37 E29.28591
G1 X55.661 Y77.467 E29.35834
G1 X55.684 Y77.298 E29.37195
G1 X55.835 Y76.425 E29.44267
G1 X55.869 Y76.26 E29.45612
G1 X56.128 Y75.237 E29.54036
G1 X56.413 Y74.368 E29.61336
G1 X56.47 Y74.214 E29.62647
G1 X56.802 Y73.401 E29.69657
G1 X56.878 Y73.237 E29.71099
G1 X57.524 Y71.985 E29.82345
G1 X57.629 Y71.805 E29.84009
G1 X58.132 Y71.001 E29.91579
G1 X58.243 Y70.84 E29.9314
G1 X58.772 Y70.119 E30.00279
G1 X58.876 Y69.987 E30.0162
G1 X59.449 Y69.315 E30.08669
G1 X59.567 Y69.186 E30.10065
G1 X60.191 Y68.554 E30.17155
G1 X60.333 Y68.42 E30.18713
G0 F9750 X60.8 Y68.012
G1 F1462.5 X60.8 Y92.361 E32.13077
G1 F2700 E27.13077
G1 F600 Z0.44
G0 F9750 X62.4 Y95.133 Z0.44
G1 F600 Z0.24
G1 F2700 E32.13077
G1 F1462.5 X62.4 Y66.828 E34.3902
G1 F2700 E29.3902
G1 F600 Z0.44
G0 F9750 X64 Y65.937 Z0.44
G1 F600 Z0.24
G1 F2700 E34.3902
G1 F1462.5 X64 Y97.973 E36.94745
G1 F2700 E31.94745
G1 F600 Z0.44
G0 F9750 X64 Y102.523 Z0.44
G1 F600 Z0.24
G1 F2700 E36.94745
G1 F1462.5 X64 Y135.028 E39.54214
G1 F2700 E34.54214
G1 F600 Z0.44
G0 F9750 X65.6 Y135.975 Z0.44
G1 F600 Z0.24
G1 F2700 E39.54214
G1 F1462.5 X65.6 Y65.286 E45.18484
G1 F2700 E40.18484
G1 F600 Z0.44
G0 F9750 X67.2 Y64.851 Z0.44
G1 F600 Z0.24
G1 F2700 E45.18484
G1 F1462.5 X67.2 Y136.679 E50.91847
G1 F2700 E45.91847
G1 F600 Z0.44
G0 F9750 X68.8 Y137.166 Z0.44
G1 F600 Z0.24
G1 F2700 E50.91847
G1 F1462.5 X68.8 Y64.595 E56.7114
G1 F2700 E51.7114
G1 F600 Z0.44
G0 F9750 X70.4 Y64.517 Z0.44
G1 F600 Z0.24
G1 F2700 E56.7114
G1 F1462.5 X70.4 Y137.459 E62.53394
G1 F2700 E57.53394
G1 F600 Z0.44
G0 F9750 X72 Y137.578 Z0.44
G1 F600 Z0.24
G1 F2700 E62.53394
G1 F1462.5 X72 Y64.517 E68.36599
G1 F2700 E63.36599
G1 F600 Z0.44
G0 F9750 X73.6 Y64.517 Z0.44
G1 F600 Z0.24
G1 F2700 E68.36599
G1 F1462.5 X73.6 Y137.555 E74.1962
G1 F2700 E69.1962
G1 F600 Z0.44
G0 F9750 X75.2 Y137.337 Z0.44
G1 F600 Z0.24
G1 F2700 E74.1962
G1 F1462.5 X75.2 Y64.517 E80.009
G1 F2700 E75.009
G1 F600 Z0.44
G0 F9750 X76.8 Y64.517 Z0.44
G1 F600 Z0.24
G1 F2700 E80.009
G1 F1462.5 X76.8 Y136.944 E85.79044
G1 F2700 E80.79044
G1 F600 Z0.44
G0 F9750 X78.4 Y136.335 Z0.44
G1 F600 Z0.24
G1 F2700 E85.79044
G1 F1462.5 X78.4 Y64.517 E91.52326
G1 F2700 E86.52326
G1 F600 Z0.44
G0 F9750 X80 Y64.517 Z0.44
G1 F600 Z0.24
G1 F2700 E91.52326
G1 F1462.5 X80 Y135.545 E97.19303
G1 F2700 E92.19303
G1 F600 Z0.44
G0 F9750 X81.6 Y135.071 Z0.44
G1 F600 Z0.24
G1 F2700 E97.19303
G1 F1462.5 X81.6 Y64.517 E102.82495
G1 F2700 E97.82495
G1 F600 Z0.44
G0 F9750 X83.2 Y64.517 Z0.44
G1 F600 Z0.24
G1 F2700 E102.82495
G1 F1462.5 X83.2 Y135.089 E108.45831
G1 F2700 E103.45831
G1 F600 Z0.44
G0 F9750 X84.8 Y135.635 Z0.44
G1 F600 Z0.24
G1 F2700 E108.45831
G1 F1462.5 X84.8 Y64.517 E114.13526
G1 F2700 E109.13526
G1 F600 Z0.44
G0 F9750 X86.4 Y64.517 Z0.44
G1 F600 Z0.24
G1 F2700 E114.13526
G1 F1462.5 X86.4 Y136.907 E119.91374
G1 F2700 E114.91374
G1 F600 Z0.44
G0 F9750 X88 Y139.476 Z0.44
G1 F600 Z0.24
G1 F2700 E119.91374
G1 F1462.5 X88 Y64.517 E125.89729
G1 F2700 E120.89729
G1 F600 Z0.44
G0 F9750 X89.6 Y64.506 Z0.44
G1 F600 Z0.24
G1 F2700 E125.89729
